apps/18/utilities-terminal.svg

<?xml version="1.0" encoding="UTF-8" standalone="no"?>
<!-- Created with Inkscape (http://www.inkscape.org/) -->
<svg xmlns:dc="http://purl.org/dc/elements/1.1/" xmlns:cc="http://creativecommons.org/ns#" xmlns:rdf="http://www.w3.org/1999/02/22-rdf-syntax-ns#" xmlns:svg="http://www.w3.org/2000/svg" xmlns="http://www.w3.org/2000/svg" xmlns:xlink="http://www.w3.org/1999/xlink" xmlns:sodipodi="http://sodipodi.sourceforge.net/DTD/sodipodi-0.dtd" xmlns:inkscape="http://www.inkscape.org/namespaces/inkscape" width="18" height="18" id="svg13094" version="1.1" inkscape:version="0.48.3.1 r9886" sodipodi:docname="bash.svg">
  <sodipodi:namedview id="base" pagecolor="#ffffff" bordercolor="#666666" borderopacity="1.0" inkscape:pageopacity="0.0" inkscape:pageshadow="2" inkscape:zoom="28.963094" inkscape:cx="13.436378" inkscape:cy="10.383938" inkscape:document-units="px" inkscape:current-layer="layer1" showgrid="true" inkscape:snap-bbox="true" inkscape:bbox-paths="true" inkscape:bbox-nodes="true" inkscape:snap-bbox-edge-midpoints="true" inkscape:snap-bbox-midpoints="true" inkscape:object-paths="true" inkscape:snap-intersection-paths="true" inkscape:object-nodes="true" inkscape:snap-smooth-nodes="true" inkscape:snap-midpoints="true" inkscape:snap-object-midpoints="true" inkscape:snap-center="true" showguides="true" inkscape:guide-bbox="true" inkscape:window-width="1920" inkscape:window-height="1032" inkscape:window-x="-7" inkscape:window-y="25" inkscape:window-maximized="1" inkscape:snap-global="true" fit-margin-top="0" fit-margin-left="0" fit-margin-right="0" fit-margin-bottom="0" showborder="true" inkscape:showpageshadow="false">
    <sodipodi:guide orientation="1,0" position="521.71982,537.11325" id="guide7209"/>
    <sodipodi:guide orientation="0,1" position="601.71982,617.11325" id="guide7211"/>
    <sodipodi:guide orientation="0,1" position="80.000089,1058.8326" id="guide7213"/>
    <sodipodi:guide orientation="1,0" position="80.000089,1058.8325" id="guide7215"/>
    <inkscape:grid type="xygrid" id="grid3131" empspacing="5" visible="true" enabled="true" snapvisiblegridlinesonly="true" originx="0.0002329375px" originy="10.999838px"/>
  </sodipodi:namedview>
  <defs id="defs13096">
    <linearGradient id="linearGradient4192-0">
      <stop id="stop4194-8" offset="0" style="stop-color:#ff760b;stop-opacity:1"/>
      <stop style="stop-color:#cf5d24;stop-opacity:1" offset="0.40902501" id="stop4196-7"/>
      <stop id="stop4198-1" offset="0.58842754" style="stop-color:#eb6e27;stop-opacity:1"/>
      <stop id="stop4200-2" offset="1" style="stop-color:#fdac3f;stop-opacity:1"/>
    </linearGradient>
    <linearGradient y2="-36.114166" x2="-3283.8335" y1="417.07828" x1="-3022.1826" gradientTransform="matrix(0.78126698,0,0,0.78126698,-723.49331,71.224053)" gradientUnits="userSpaceOnUse" id="linearGradient3094" xlink:href="#linearGradient4192-0" inkscape:collect="always"/>
  </defs>
  <metadata id="metadata13099">
    <rdf:RDF>
      <cc:Work rdf:about="">
        <dc:format>image/svg+xml</dc:format>
        <dc:type rdf:resource="http://purl.org/dc/dcmitype/StillImage"/>
        <dc:title/>
      </cc:Work>
    </rdf:RDF>
  </metadata>
  <g transform="translate(9398.6162,-5035.9922)" id="layer1" inkscape:groupmode="layer" inkscape:label="Camada 1">
    <path sodipodi:nodetypes="ccccccccccccccccccccccc" inkscape:connector-curvature="0" style="fill:#27303a;fill-opacity:0.753280819999999968;fill-rule:nonzero;stroke:none" d="m -9397.616,5036.9924 0,2 14,0 0,-2 z m 0,3 0,8 14,0 0,-8 z m 2.7812,0.9688 4.5,2.6249 0,0.8125 -4.5,2.625 -0.8125,-1.3125 3.125,-1.7187 -3.125,-1.7188 z m -2.7812,8.0312 0,2 14,0 0,-2 z" id="path2994" transform="translate(1,1)"/>
    <path style="font-size:medium;font-style:normal;font-variant:normal;font-weight:normal;font-stretch:normal;text-indent:0;text-align:start;text-decoration:none;line-height:normal;letter-spacing:normal;word-spacing:normal;text-transform:none;direction:ltr;block-progression:tb;writing-mode:lr-tb;text-anchor:start;baseline-shift:baseline;color:#000000;fill:#f1f3f5;fill-opacity:0.90288714000000003;fill-rule:nonzero;stroke:none;stroke-width:2;marker:none;visibility:visible;display:inline;overflow:visible;enable-background:accumulate;font-family:Sans;-inkscape-font-specification:Sans" d="M 0 0 L 0 1 L 0 3 L 0 4 L 0 12 L 0 13 L 0 15 L 0 16 L 1 16 L 15 16 L 16 16 L 16 15 L 16 13 L 16 12 L 16 4 L 16 3 L 16 1 L 16 0 L 15 0 L 1 0 L 0 0 z M 1 1 L 15 1 L 15 3 L 1 3 L 1 1 z M 1 4 L 15 4 L 15 12 L 1 12 L 1 4 z M 3.78125 4.96875 L 2.96875 6.28125 L 6.09375 8 L 2.96875 9.71875 L 3.78125 11.03125 L 8.28125 8.40625 L 8.28125 7.59375 L 3.78125 4.96875 z M 1 13 L 15 13 L 15 15 L 1 15 L 1 13 z " transform="translate(-9397.6162,5036.9922)" id="path3069"/>
  </g>
</svg>

<?xml version="1.0" encoding="UTF-8"?>
<!-- Created with Inkscape (http://www.inkscape.org/) -->
<svg width="18" height="18" version="1.1" xmlns="http://www.w3.org/2000/svg" xmlns:cc="http://creativecommons.org/ns#" xmlns:dc="http://purl.org/dc/elements/1.1/" xmlns:rdf="http://www.w3.org/1999/02/22-rdf-syntax-ns#">
	<defs>
		<radialGradient id="b" cx="353.34" cy="-90.447" r="7.254" gradientTransform="matrix(1.4245,0,0,1.3785,-9893.9,5172.7)" gradientUnits="userSpaceOnUse">
			<stop stop-color="#213851" stop-opacity=".9059" offset="0"/>
			<stop stop-color="#27303a" stop-opacity="0" offset="1"/>
		</radialGradient>
		<radialGradient id="a" cx="11" cy="5.4446" r="10" gradientTransform="matrix(1 0 0 .9 -9401.6 5033.1)" gradientUnits="userSpaceOnUse">
			<stop stop-color="#ffffff" stop-opacity=".74858" offset="0"/>
			<stop stop-color="#ffffff" stop-opacity=".60511" offset="1"/>
		</radialGradient>
	</defs>
	<metadata>
		<rdf:RDF>
			<cc:Work rdf:about="">
				<dc:format>image/svg+xml</dc:format>
				<dc:type rdf:resource="http://purl.org/dc/dcmitype/StillImage"/>
				<dc:title/>
			</cc:Work>
		</rdf:RDF>
	</metadata>
	<g transform="translate(9399.6,-5035)">
		<path d="m-9397.6 5037v2h14v-2zm0 3v8h14v-8zm2.7812 0.9688 4.5 2.6249v0.8125l-4.5 2.625-0.8125-1.3125 3.125-1.7187-3.125-1.7188zm-2.7812 8.0312v2h14v-2z" fill="#090d11" fill-opacity=".76621" style="paint-order:normal"/>
		<path d="m-9397.6 5037v2h14v-2zm0 3v8h14v-8zm2.7812 0.9688 4.5 2.6249v0.8125l-4.5 2.625-0.8125-1.3125 3.125-1.7187-3.125-1.7188zm-2.7812 8.0312v2h14v-2z" fill="url(#b)" fill-opacity=".7533" style="paint-order:normal"/>
		<path transform="translate(-9398.6,5036)" d="m0 0v16h16v-16h-15zm1 1h14v2h-14zm0 3h14v8h-14zm2.7812 0.96875-0.8125 1.3125 3.125 1.7188-3.125 1.7188 0.8125 1.3125 4.5-2.625v-0.8125l-4.5-2.625zm-2.7812 8.0312h14v2h-14z" color="#000000" fill="url(#a)" fill-opacity=".99858" style="paint-order:normal;text-indent:0;text-transform:none"/>
	</g>
</svg>
